X:1
T: Burgess Hornpipe
C:
R:Reel
Q: 232
K:D
M:4/4
L:1/8
|:A2|d2AG FD D2|EG EG FD D2|d2 fd ef ge|fa ec dc BA|
d2 AG FD D2|EG EG FD D2|d2 fd ef ge|fa ec d2 A2|
d2 e2 f2 g2|fa ec dc BA|d2 e2 f2 g2|fa ec d2 A2|
dA eA fA gA|fa ec dc BA|dA eA fA gA|fa ec d2:|
